X:1
T:Second Suite in F
T: Second Suite in F 
T: Gustav Holst I. March II. Song Without Words III. Song of the Blacksmith IV. Fantasia on the Dargason 
T:March
T:Movement I
T:Song Without Words
T:Movement II
T:Song of the Blacksmith
T:Movement III
T:Fantasia on the Dargason
T:Movement IV
C:Gustav Holst
%%score { 1 | 2 }
L:1/8
Q:1/2=120
M:2/2
K:F
V:1 treble nm="Piano" snm="Pno."
V:2 bass 
V:1
 z8 | .f.g.a.b .c'2 z2 |!f! .[A,CF].G.A.B .c2 .[FAc]2 | .[FBd]2 .[GBe]2 .[cf]2 ([Ae]f) | %4
 .[cg]2 .c2 .[Af]2 .e2 | ([FBd]4 .[EGc]4) | .[A,CF].G.A.B .c2 .[FAc]2 | %7
 .[FBd]2 .[GBe]2 .[cf]2 ([Ae]f) | .[cg]2 .c2 .[Af]2 .e2 | ([FBd]4 .[EGc]4) | [Acf]4 [ce]3 f | %11
 .[Bd]2 .[Bf]2 [Ac]4 | [Ff]2 .[Fe].[Fd] [Fc]2 .[FB].[FA] | ([FB]c[Fd]B [EG]2) ([EA]G) | %14
 .[CF].G.[EA].B .[FAc]2 .[Gc]2 | .[FBd]2 .[GBe]2 .[cf]2 ([Ae]f) | .[cg]2 .c2 .[Af]2 .e2 | %17
 ([FBd]4 .[EGc]4) |!p! ([Af][dg][fa][gb] .[fac']2) .[Af]2 | ([fbd'][ac'][gb][fa] .[ceg]2) .c2 | %20
 ([Af][dg][fa][gb] .[eac']2) .c'2 | ([fa]3 [gb]) [ac']4 | ([Af][dg][fa][gb] .[fac']2) .[Af]2 | %23
 ([fbd'][ac'][gb][fa] .[ceg]2) .c2 | ([Af][dg][fa][gb] .[eac']2) .c'2 | ([fa]3 [gb]) [ac']4 | %26
!f! .[A,CF].G.A.B .c2 .[FAc]2 | .[FBd]2 .[GBe]2 .[cf]2 ([Ae]f) | .[cg]2 .c2 .[Af]2 .e2 | %29
 ([FBd]4 .[EGc]4) | .[A,CF].G.A.B .c2 .[FAc]2 | .[FBd]2 .[GBe]2 .[cf]2 ([Ae]f) | %32
 .[cg]2 .c2 .[Af]2 .e2 | ([FBd]4 .[EGc]4) | [Acf]4 [ce]3 f | .[Bd]2 .[Bf]2 [Ac]4 | %36
 [Ff]2 .[Fe].[Fd] [Fc]2 .[FB].[FA] | ([FB]c[Fd]B [EG]2) ([EA]G) | .[CF].G.[EA].B .[FAc]2 .[Gc]2 | %39
 .[FBd]2 .[GBe]2 .[cf]2 ([Ae]f) | .[cg]2 .c2 .[Af]2 .e2 | ([Bd]4 [Gc]4) || %42
 !tenuto![FB]4 !tenuto![EA]4 | !tenuto![DG]4 !tenuto![CF]4 | !tenuto![B,E]4 !tenuto![A,D]4 | %45
 !tenuto![G,C]4[K:bass]!mf! (F,3 A, | C4 C4 | B,4 G,4 | F,8- | F,4) (C4 | D4 G4 | F2 E2 D2 C2 | %52
 F8- | F4) (C4 | F6 E2 | D6 C2 | D4 C4 | A,4) (F,3 A, | D4 C4 | B,4 A,4 | G,8- | G,4) (F,3 G, | %62
 A,4 C4 | G,4 A,2 G,2 | !tenuto!F,4 !tenuto!F,4 | !tenuto!F,4) (C3 C | D4 G4 | F2 E2 D2 C2 | F8- | %69
 F4) (C4 | F6 E2 | D6 C2 | D4 F4 | A,4) (F,2 A,2 | C6 D2 | C2 B,2 G,2 E,2) | F,8- | %77
 F,4[K:treble]!ff! [CF]3 A | [Fc]4 [Fc]4 | [DGB]4 [CEG]4 | [A,CF]8- | [A,CF]4 [FAc]4 | %82
 [FBd]4 [Bdg]4 | [Gf]2 e2 [Ed]2 c2 | [Af]8- | [Af]4 [Fc]4 | [Bf]6 e2 | [Fd]6 c2 | [FAd]4 [Gc]4 | %89
 [CFA]4 [CF]3 A | [Fd]4 [Fc]4 | [FB]4 [FA]4 | [DG]8- | [DG]4 F3 G | [FA]4 [Fc]4 | [DG]4 [EA]2 G2 | %96
 F4 [EF]4 | [DF]4 [Fc]3 c | [Fd]4 [Bg]4 | [Gf]2 e2 [Gd]2 c2 | [Acf]8- | [Acf]4 [FAc]4 | %102
 [Af]6 [Ae]2 | [Fd]6 [Fc]2 | [Fd]4 [Bf]4 | [FA]4 F2 A2 | [Ec]6 d2 | c2 B2 G2 E2 | F8 | %109
 !>![FAc]4 z4!fine! ||[K:Db][M:6/8][Q:3/4=180]!f! !>![Bdf]2 z [B,D]2!pp! F, | B,2 B, (B,A,F,) | %112
 (D2 E) (FAF) | (EDB,) (B,A,F,) | A,3- A,2 F, | B,2 B, (B,A,F,) | (D2 E) (FAF) | (EDB,) B,2 C | %118
 B,3- B,2 F | (A2 F D2 F) | (A3 B2) A | (FED) (EDB,) | A,3- A,2 A, | B,2 B, (B,A,F,) | %124
 (D2 E) (FAF) | (EDB,) B,2 C | B,3- B,2!f! F | A3- A2 F | (B A2- A2) F | (FED) (EDB,) | %130
 A,3- A,2!mf! A, | B,2 B, (B,A,F,) | (D2 E) (FAF) | (EDB,) B,2 C | B,3- B,2!p! F | B2 B (BAF) | %136
 (d2 e) (faf) | (edB) (BAF) | A3- A2 F | B2 B (BAF) | (d2 e) (faf) | (edB) B2 c | B3- B2 f | %143
 (a2 f d2 f) | (a3 b2) a | (fed) (edB) | A3- A2"_cresc." A | B2 B (BAF) | (d2 e) (faf) | %149
 (edB) B2 c | B3- B2!ff! f | a3- a2 f | (b a2- a2) f | (fed) (edB) | A3- A2 A | B2 B (BAF) | %156
 (d2 e) (faf) | (edB) B2 c | B3- B z z!D.C.! ||[K:Ab][M:4/4][Q:1/4=60]!pp! A4 z4 | A4 z2 (C2 | %161
 F2 FG AG F2) | (c=d e4) (cB | A3 F G2 G2 | F6) (C2 | F2 FG AG F2) | (c=d e4) (e2 | f2 =dc B2 B2 | %168
 c6) (c=d | e2 =dc f2 f2 | e2 =d2 c2) cB | A2 F2 F2 F2 | E6 (C2 | F3 G A3 B | c=d e2 f2) (cB | %175
 A4 G4 | F6)[K:treble+8] (C2 |!f! F2 FG AG F2) | (c=d e4) (cB | A3 F G2 G2 | F6) (C2 | %181
 F2 FG AG F2) | (c=d e4) (e2 | f2 =dc B2 B2 | [FAc]6) (c=d | e2 =dc f2 f2 | e2 =d2 c2) cB | %187
 A2 F2 F2 F2 | E6 (C2 | F3 G A3 B | c=d e2 !fermata![fa]2) cB | A4 G4 | F8 | %193
[K:treble] =dcBF =DCB,F, | [F,A,C]8 | z8 |] %196
[K:F][M:4/4][Q:1/4=110]!ff! z .[Bf] z .[Gc] z .[Ae] .d/.c/.d | %197
[M:3/4] .[Bf].[Ae] z .[Gd]/.[Fc]/ .[Gd].[FB] |[M:4/4] z .[Bf] z .[Gc] z .[Ae] .d/.c/.d | %199
[M:3/4] .[Bf].[Ae] z .[Gd]/.[Fc]/ .[Gd].[FB] |[M:4/4] z8 |[M:3/4] z4!mp! F>G | %202
[M:4/4] AA G/E/G C2 D>E |[M:3/4] FA G/F/D z A |[M:4/4] GD E/F/G C2 D>E | %205
[M:3/4] F/>G/A/>F/ ED z A,/>A,/ ||[M:4/4]!p! DD c/A/B/c/ A2 D>E | FG/A/ cA/G/ F G2 F/>G/ | %208
!f! AA G/E/G C2 D>E | FA G/F/ D2 z!mf! B>c || dd c/A/c F2 G>A |[M:3/4] Bd c/B/G z d | %212
[M:4/4] cG A/B/c F2 G>A |[M:3/4] B/>c/d/>B/ AG z"_cresc." D/>D/ |[M:4/4] GG f/d/e/f/ d2 G>A | %215
 Bc/d/ fd/c/ BB z2 | fd/c/ BB fd/c/ BB | fBfB fB z [Bf] | %218
[M:3/4] [GB]/[GB]/[GB]!fff! z !fermata!F2 G |[M:4/4] AA G/E/G C2 D>E |[M:3/4] FA G/F/D z A | %221
[M:4/4] GD E/F/G C2 D>E |[M:3/4] F/>G/A/>F/ ED z A/>A/ |[M:4/4] dd c/A/B/c/ A2 d>e | %224
 fg/a/ c'a/g/ f g2 F/>G/ | AA G/E/G C2 D>E | FA G/F/.D z2 z .[Bf] | %227
 z .[Bf] z .[Bf] z2 .[Bf]/.[Bf]/.[Bf] | z2 !fermata![Ad^f]6 |][M:6/8][Q:3/8=128] z | z6 | z6 | z6 | %233
 z6 | z6 | z6 | z6 | z6 | z2 (C/=B,/ C3- | C6- | C2) (C/=B,/ C3- | C6- | C2) (C/=B,/ C3- | C6- | %244
 C2) (C/=B,/ C3- | C6) || A2 F F2 .F | A2 B cBA | B2 G G2 .G | B2 c dcB | A2 F F2 .F | f2 .f edc | %252
 B2 G G2 .G | g2 .f edc ||"_cresc." [FA]3 [Ac]3 | [FA]3 [DF]3 | [GB]3 [Bd]3 | [GB]3 [EG]3 | %258
 [Ac]3 [ca]3 | [Ac]3 [FA]3 | [ce]3 [eb]3 | [ce]3 [GB]3 | [cf]3 [Bd]3 | [Ac]3 [FA]3 | [df]3 [ce]3 | %265
!mf! [Bd]3"_cresc." [GB]3 | [df]3 [ce]3 | [Bd]3 [Ac]3 | [DG]3 F3 | [ce]3 [ce]2 c || %270
!f! [FA]2 [A,F] [A,F]2 .[A,F] | [FA]2 [GB] [Ac][GB][FA] | [GB]2 [EG] [EG]2 .[EG] | %273
 [GB]2 [Ac] [Bd][Ac][GB] | [FA]2 [A,F] [A,F]2 .[A,F] | [Af]2 .[Af] [ce][Bd][Ac] | %276
 [GB]2 [EG] [EG]2 .[EG] | [Bg]2 .[Af] [Ge][Fd][Ec] ||"_dim." A2 F F2 .F | A2 B cBA | B2 G G2 .G | %281
 B2 c dcB |"_dim." A2 F F2 .F | f2 .f edc | B2 G G2 .G | g2 .f edc ||!p! A2 F F2 .F | A2 B cBA | %288
 B2 G G2 .G | B2 c dcB | A2 F F2 .F | f2 .f edc | B2 G G2 .G | g2 .f edc | A2 F F2 .F | A2 B cBA | %296
 B2 G G2 .G | B2 c dcB | A2 F F2 .F | f2 .f edc | B2 G G2 .G | g2 .f edc | A2 F F2 .F | A2 B cBA | %304
 B2 G G2 .G | B2 c dcB | A2 F F2 .F | f2 .f edc | B2 G G2 .G | g2 .f edc | A2 F F2 .F | A2 B cBA | %312
 B2 G G2 .G | B2 c dcB | A2 F F2 .F | f2 .f edc | B2 G G2 .G | g2 .f edc || [DFA]6 | c3 d3 | %320
 [GBd]6- | [GBd]6 | [FAd]6- | [FAd]6 | [FB]6 | [Ec]6 ||"_cresc." A2 F F2 .F | A2 B cBA | %328
 B2 G G2 .G | B2 c dcB | A2 F F2 .F | f2 .f edc | B2 G G2 .G | g2 .f edc || %334
!ff! [FA]2 [A,F] [A,F]2 .[A,F] | [FA]2 [GB] [Ac][GB][FA] | [GB]2 [EG] [EG]2 .[EG] | %337
 [GB]2 [Ac] [Bd][Ac][GB] | [FA]2 [A,F] [A,F]2 .[A,F] | [Af]2 .[Af] [ce][Bd][Ac] | %340
 [GB]2 [EG] [EG]2 .[EG] | [Bg]2 .[Af] [Ge][Fd][Ec] | [Fc]3 [Fc]3 | Tc6 | [Be]3 [Be]3 | Te6 | %346
 (2:3:2!>!c'!>!d' (2:3:2!>!c'!>!b | (2:3:2!>!a!>!g (2:3:2!>!f!>!e | (2:3:2!>!d!>!c (2:3:2!>!B!>!A | %349
 G2 .F EDC ||[K:bass]!p!"_cresc." A,2 F, F,2 .F, | A,2 B, CB,A, | B,2 G, G,2 .G, | B,2 C DCB, | %354
 A,2 F, F,2 .F, | F2 .F EDC | B,2 G, G,2 .G, | G2 .F EDC |[K:treble]!p!"_cresc." A2 F F2 .F | %359
 A2 B cBA | B2 G G2 .G | B2 c dcB | A2 F F2 .F | f2 .f edc | B2 G G2 .G | g2 .f edc || %366
!f! A2 F F2 .F | A2 B cBA | B2 G G2 .G | B2 c dcB | A2 F F2 .F | f2 .f edc | B2 G G2 .G | %373
 g2 .f edc ||[K:treble+8]!ff! A2 F F2 .F | A2 B cBA | B2 G G2 .G | B2 c dcB | A2 F F2 .F | %379
 f2 .f edc | B2 G G2 .G | g2 .f edc | A2 F F2 .F | A2 B cBA | B2 G G2 .G | B2 c dcB | A2 F F2 .F | %387
 f2 .f edc | B2 G G2 .G | g2 .f edc | A2 F F2 .F | A2 B cBA | B2 G G2 .G | B2 c dcB | A2 F F2 .F | %395
 f2 .f edc | B2 G G2 .G | g2 .f edc | A2 F F2 .F | A2 B cBA | B2 G G2 .G | B2 c dcB | A2 F F2 .F | %403
 f2 .f edc | B2 G G2 .G | g2 .f edc ||[K:treble]!mp! F6 | E3 F3 | [DG]6- | [DG]6 | [DFA]6 | B6 | %412
 [CE]6 | c6 ||!p!!>(! [FAd]6!>)! | c z z z3 |!p!!>(! [GB_e]6!>)! | d z z z3 |!p!!>(! [cg]6!>)! | %419
 f z z z3 |!p!!>(! [ea]6!>)! | g z z z3 |!pp! [FAd]6 | [CFA]6 | z6 | z6 | [FAd]6 | [CFA]6 | z6 | %429
 z6 ||[K:treble+8]!p! z6 | a2 b c'ba | z6 | z3 b2 c' | d'c'b a z z | z6 | z3 .E.F.G | %437
 .A.B.c .d.e.f | .g.a.b (2:3:2.c'.d' | Te'6 | !>!f' z z!ff! !>![FAc]2 z |] %441
V:2
 .F,,.G,,.A,,.B,, .C,2 z2 | z8 | F,2 z2 z2 F,2 | B,2 G,2 A,2 F,2 | E,2 z2 D,2 C,2 | B,,4 .C,4 | %6
 F,2 z2 z2 F,2 | B,2 G,2 A,2 F,2 | E,2 z2 D,2 C,2 | B,,4 .C,4 | F,,4 A,,4 | B,,2 D,2 F,4 | %12
 D,2 C,B,, A,,2 G,,F,, | G,,A,, B,,2 C,2 B,,2 | A,,2 G,,2 F,,2 E,,2 | D,2 C,B,, A,,G,, F,,2 | %16
 E,,2 E,2 D,2 C,2 | B,,4 C,2 z2 |[K:treble] [DF]4 [CF]2 [CF]2 | [B,F]4 C2 [CG]2 | %20
 [DF]4 [CE]2 [CE]2 | [FAc]4 [FAc]4 | [DF]4 [CF]2 [CF]2 | [B,F]4 C2 [CG]2 | [DF]4 [CE]2 [CE]2 | %25
 [FAc]4 [FAc]4 |[K:bass] F,2 z2 z2 F,2 | B,2 G,2 A,2 F,2 | E,2 z2 D,2 C,2 | B,,4 .C,4 | %30
 F,2 z2 z2 F,2 | B,2 G,2 A,2 F,2 | E,2 z2 D,2 C,2 | B,,4 .C,4 | F,,4 A,,4 | B,,2 D,2 F,4 | %36
 D,2 C,B,, A,,2 G,,F,, | G,,A,, B,,2 C,2 B,,2 | A,,2 G,,2 F,,2 E,,2 | D,2 C,B,, A,,G,, F,,2 | %40
 E,,2 E,2 D,2 C,2 | B,,4 C,4 || !tenuto!D,4 !tenuto!C,4 | !tenuto!B,,4 !tenuto!A,,4 | %44
 !tenuto!G,,4 !tenuto!F,,4 | !tenuto!E,,4 !tenuto![D,,F,,]4 |!p! C,2 z2 A,,2 z2 | B,,2 z2 C,2 z2 | %48
 D,2 z2 B,,2 z2 | A,,2 z2 F,,2 z2 | B,,2 z2 G,,2 z2 | C,2 z2 B,,2 z2 | A,,2 z2 B,,2 z2 | %53
 A,,2 z2 G,,2 z2 | F,,2 z2 A,,2 z2 | C,2 z2 F,2 z2 | B,,2 z2 C,2 z2 | D,2 z2 C,2 z2 | %58
 B,,2 z2 A,,2 z2 | G,,2 z2 F,,2 z2 | E,,2 z2 E,3 D, | C,3 B,, A,,3 G,, | F,,2 z2 A,,2 z2 | %63
 B,,2 z2 C,2 z2 | D,2 z2 B,,2 z2 | A,,2 z2 F,,2 z2 | B,,2 z2 G,,2 z2 | C,2 z2 A,,2 z2 | %68
 D,2 z2 C,2 z2 | B,,2 z2 A,,2 z2 | G,,2 z2 F,,2 z2 | G,,2 z2 A,,2 z2 | B,,2 z2 D,2 z2 | %73
 F,2 z2 D,2 z2 | C,2 z2 A,,2 z2 | B,,2 z2 C,2 z2 | F,,4 D,4 | C,2 B,,2!f! A,,2 F,,2 | G,,4 A,,4 | %79
 B,,4 C,4 | F,4 C,4 | A,,4 F,,4 | B,,4 G,,4 | C,4 A,,4 | D,4 C,4 | B,,4 A,,4 | G,,4 A,,4 | %87
 B,,4 A,,4 | D,4 E,4 | F,4 A,,4 | B,,4 A,,4 | B,,4 D,4 | G,,4 A,,4 | B,,4 D,4 | C,4 A,,4 | %95
 B,,4 C,4 | [D,F,A,]4 [C,F,A,]4 | [B,,F,B,]4 A,,4 | B,,4 G,,4 | C,4 C,4 | F,,4 A,,4 | C,4 F,2 E,2 | %102
 D,6 C,2 | B,,6 A,,2 | B,,4 G,,4 | F,,4 D,4 | C,2 z2 z2 D2 | C2 B,2 G,2 E,2 | F,8 | !>!F,,4 z4 || %110
[K:Db][M:6/8] !>![B,,D,F,]2 z [B,,F,]2 z | ([B,,D,]3 [F,,C,]) z z | ([B,,D,]3 [F,,C,]) z z | %113
 (B,,3 [F,,C,]) z z | (C,3 [F,,A,,]) z z | ([B,,D,]3 [F,,C,]) z z | ([B,,D,]3 [F,,C,]) z z | %117
 ([F,,B,,]3 [B,,E,]) z z | [B,,F,]3 B,,, z z | ([A,,D,]3 [B,,F,]) z z | ([A,,D,]3 [B,,F,]) z z | %121
 ([A,,D,]3 [B,,F,]) z z | ([A,,E,]3 [F,,F,]) z z | ([B,,D,]3 [F,,C,]) z z | %124
 ([B,,D,]3 [F,,C,]) z z | (B,,3 [F,,C,]) z z | [B,,F,]3 [B,,F,] z z | [D,F,A,] z z [F,A,C] z z | %128
 [D,F,A,] z z [F,A,C] z z | [D,F,A,] z z [G,B,] z2 | [A,,C,E,] z z [F,,C,] z z | %131
 ([B,,D,F,]3 [F,,C,]) z z | ([B,,D,F,]3 [F,,C,]) z z | ([B,,D,F,]3 [E,G,]) z z | %134
 ([B,,D,F,]3 B,,,) z z | [B,,F,] z z [F,,C,] z z | [B,,F,] z z [F,,C,] z z | %137
 [E,,B,,] z z [F,,D,] z z | [A,,E,] z z [F,,C,] z z | [B,,F,] z z [F,,C,] z z | %140
 [B,,F,] z z [F,,C,] z z | [B,,F,] z z [E,,B,,] z z | [B,,F,] z z [B,,F,] z z | %143
 [D,F,A,] z z [B,,D,F,] z z | [D,F,A,] z z [B,,D,F,] z z | [D,F,A,] z z [G,B,] z z | %146
 [A,CE] z z [F,A,C] z z | [B,,D,F,] z z [F,,C,] z z | [B,,D,F,] z z [F,,C,] z z | %149
 [B,,F,] z z [E,G,B,] z z | [B,,D,F,] z z [B,,D,F,] z z | [F,,A,,D,] z z [F,,A,,C,] z z | %152
 [F,,A,,D,] z z [A,,C,F,] z z | [F,,A,,D,] z z [B,,E,G,] z z | [A,,C,E,] z z [A,,C,F,] z z | %155
 [B,,D,F,] z z [D,F,A,] z z | [B,,D,F,] z z [D,F,A,] z z | [B,,D,F,] z z [G,,B,,E,] z z | %158
 [B,,D,F,] z z [D,,F,,B,,] z2 ||[K:Ab][M:4/4] [C,F,]4 [A,C]4 | [C,F,]4 [A,C]4 | [C,F,]4 [A,C]4 | %162
 [C,F,]4 [A,C]4 | [F,A,]4 C,4 | [C,F,]4 [A,C]4 | [C,F,]4 [A,C]4 | [C,F,]4 [A,C]4 | %167
 [=D,F,]4 [B,,D,]4 | [C,F,]4 [A,C]4 | [C,G,]4 F,4 | [C,G,]4 F,4 | [F,A,]4 B,,4 | [C,G,]8 | %173
 B,,4 A,,4 | G,,4 F,,4 | E,,8 | A,G,F,C, A,,G,,F,,C,, | F,,,C,,F,,G,, A,,C,F,G, | %178
 A,G,F,C, A,,G,,F,,C,, | F,,,C,,F,,A,, C,E,G,B, | A,G,F,C, A,,G,,F,,C,, | F,,,C,,F,,A,, F,A,CF | %182
 AGFC A,G,F,C, | B,,,F,,B,,=D, F,B,=DF | AGFC A,G,F,C, | F,,C,=D,E, F,C,F,A, | G,E,A,F, E,C,G,C, | %187
 F,,C,F,A, B,A,F,A, | G,2 G,=D, E,G,E,C, | F,,,C,,F,,G,, A,,C,F,G, | A,B, C2 F2 z2 | %191
 A,,,C,,F,,A,, C,E,G,B, | A,G,F,C, A,,G,,F,,C,, | [=D,F,]8 | A,G,F,C, A,,G,,F,,C,, | %195
 A,,,G,,, !fermata!F,,,6 |][K:F][M:4/4] z .[D,G,] z .[C,G,] z .[E,A,] .[F,B,]/.[G,C]/.[F,B,] | %197
[M:3/4] .[D,G,].[E,A,] z .[F,B,]/.[C,G,]/ .[F,B,].[G,B,] | %198
[M:4/4] z .[D,G,] z .[C,G,] z .[E,A,] .[F,B,]/.[G,C]/.[F,B,] | %199
[M:3/4] .[D,G,].[E,A,] z .[F,B,]/.[C,G,]/ .[F,B,].[G,B,] | %200
[M:4/4]"_dim." z .[D,F,] z .[G,,C,] z .[A,,E,] .[B,,D,]/.[G,,C,]/.[B,,D,] | %201
[M:3/4] .[D,F,].[A,,E,] z .[B,,D,]/.[F,,C,]/ .[B,,D,].[G,,B,,] | %202
[M:4/4] z"_sim." .[D,F,] z .[G,,C,] z .[A,,E,] .[B,,D,]/.[G,,C,]/.[B,,D,] | %203
[M:3/4] .[D,F,].[A,,E,] z .[B,,D,]/.[F,,C,]/ .[B,,D,].[G,,B,,] | %204
[M:4/4] z .[D,F,] z .[G,,C,] z .[A,,E,] .[B,,D,]/.[G,,C,]/.[B,,D,] | %205
[M:3/4] .[D,F,].[A,,E,] z .[B,,D,]/.[F,,C,]/ .[B,,D,].[G,,B,,] ||[M:4/4] [D,A,]2 A,4 [D,A,]2- | %207
 [D,A,]2 [A,E]4 [G,D]2 | z .[D,F,] z .[G,,C,] z .[A,,E,] .[B,,D,]/.[G,,C,]/.[B,,D,] | %209
 [D,G,][E,A,] z .[B,,D,]/.[G,,C,]/ .[B,,D,][F,B,] .[G,,C,]2 || %210
 z .[E,B,] z .[A,,F,] z .[B,,G,]/[C,A,]/ .[B,,G,].[D,B,] |[M:3/4] !tenuto![G,,D,]2 z2 [D,G,]2 | %212
[M:4/4] z .[E,B,] z .[A,,F,] z .[B,,G,]/[C,A,]/ .[B,,G,].[D,B,] | %213
[M:3/4] !tenuto![G,,D,]2 z2 [D,G,]2 |[M:4/4] [C,F,]2 D,>D, G,G, F/D/E/F/ | %215
 [F,D]2 G,>A, B,C/D/ FD/C/ | [C,F,]2 [G,,B,,]2 [C,F,]2 [G,,B,,]2 | %217
 [C,F,][G,,B,,][C,F,][G,,B,,] [C,F,][G,,B,,] z [C,F,] |[M:3/4] [C,F,]/[C,F,]/[C,F,] z4 | %219
[M:4/4] z .[D,F,] z .[G,,C,] z .[A,,E,] .[B,,D,]/.[G,,C,]/.[B,,D,] | %220
[M:3/4] .[D,F,].[A,,E,] z .[B,,D,]/.[F,,C,]/ .[B,,D,].[G,,B,,] | %221
[M:4/4] z .[D,F,] z .[G,,C,] z .[A,,E,] .[B,,D,]/.[G,,C,]/.[B,,D,] | %222
[M:3/4] .[D,F,].[A,,E,] z .[B,,D,]/.[F,,C,]/ .[B,,D,].[G,,B,,] |[M:4/4] [D,A,]2 A,4 [D,A,]2- | %224
 [D,A,]2 [A,E]4 [G,D]2 | z .[D,F,] z .[G,,C,] z .[A,,E,] .[B,,D,]/.[G,,C,]/.[B,,D,] | %226
 .[D,F,].[A,,E,] z .[B,,D,]/.[F,,C,]/ .[B,,D,].[G,,B,,] z .[G,D] | %227
 z .[G,D] z .[G,D] z2 .[G,D]/.[G,D]/.[G,D] | z2 !fermata![D^F]6 |][M:6/8]!p! C | A,2 F, F,2 .F, | %231
 A,2 B, CB,A, | B,2 G, G,2 .G, | B,2 C DCB, | A,2 F, F,2 .F, | F2 .F EDC | B,2 G, G,2 .G, | %237
 G2 .F EDC | A,,2 F,, F,,2 .F,, | A,,2 B,, C,B,,A,, | B,,2 G,, G,,2 .G,, | B,,2 C, D,C,B,, | %242
 A,,2 F,, F,,2 .F,, | F,2 .F, E,D,C, | B,,2 G,, G,,2 .G,, | G,2 .F, E,D,C, || [F,,C,] z z [F,C]3- | %247
 [F,C]3 [F,A,]3 | [F,,C,] z z [F,C]3- | [F,C]3 [F,A,]3 | [F,,C,] z z [F,C]3- | [F,C]3 [F,A,]3 | %252
 [F,,C,] z z [F,C]3- | [F,C]3 [B,E]2 C || A,2 F, F,2 .F, | A,2 B, CB,A, | B,2 G, G,2 .G, | %257
 B,2 C DCB, | A,2 F, F,2 .F, | F2 .F EDC | B,2 G, G,2 .G, | G2 .F EDC | A,2 F, F,2 .F, | %263
 A,2 B, CB,A, | B,2 G, G,2 .G, | B,2 C DCB, | A,2 F, F,2 .F, | F2 .F EDC | B,2 G, G,2 .G, | %269
 G2 .F EDC || [F,,A,,C,]2 C, F,2 C, | F,,2 C, F,2 C, | [F,,A,,]2 C, G,2 C, | F,,2 C, F,2 C, | %274
 [F,,A,,C,]2 C, F,2 C, | F,,2 C, F,2 C, | [F,,A,,]2 C, G,2 C, | F,,2 C, F,2 C, || %278
 [D,,A,,]3 [D,A,]3 | [D,,A,,]3 [D,A,]3 |!p! [G,,B,,E,]6- | [G,,B,,E,]6 | [D,,A,,]3 [D,A,]3 | %283
 [D,,A,,]3 [D,A,]3 |!pp! [G,,B,,E,]6- | [G,,B,,E,]6 || z6 |!mp! F,6 | (B,4 C2 | D2 E2 D2) | %290
 (C4 A,2 | F,2 G,2 A,2) | (B,4 G,2 | E,2 F,2 G,2) | (A,6 | D,4) F,2 | (B,4 C2 | D2 E2 D2) | %298
 (C4 A,2 | F,2 G,2 A,2) | (B,4 G,2 | E,2 F,2 G,2) | A,6- | A,6 | F6 | (F2 E2 D2) | (C4 A,2 | %307
 F,2 G,2 A,2) | (B,4 G,2 | E,2 F,2 G,2) | (A,4 F,2 | D,6) | F,6 | (F,2 E,2 D,2) | (C,4 A,,2 | %315
 F,,2 G,,2 A,,2) | (B,,6 | G,,6) || A,2 F, F,2 .F, | A,2 B, CB,A, | B,2 G, G,2 .G, | B,2 C DCB, | %322
 A,2 F, F,2 .F, | F2 .F EDC | B,2 G, G,2 .G, | G2 .F EDC || [F,C]3 [E,A,]3 | [D,A,]3 [C,F,]3 | %328
 [B,,D,]3 [G,,D,]3 | [G,,B,,]3 [C,,G,,]3 | [D,F,]3 [F,A,]3 | [D,F,]3 [F,A,]3 | [G,B,D]3 [F,B,D]3 | %333
 [E,G,C]3 [C,G,]3 ||!f! [F,,A,,]2 C, [F,,A,,]2 C, | [F,,A,,]2 C, [F,,A,,]2 C, | %336
 [E,,B,,]2 C, [E,,B,,]2 C, | [E,,B,,]2 C, [E,,B,,]2 C, | [F,,A,,]2 C, [F,,A,,]2 C, | %339
 [F,,A,,]2 C, [F,,A,,]2 C, | [E,,B,,]2 C, [E,,B,,]2 C, | [F,,A,,]2 C, [F,,A,,]2 C, | %342
 A,2 F, F,2 .F, | A,2 B, CB,A, | B,2 G, G,2 .G, | B,2 C DCB, | A,2 F, F,2 .F, | F2 .F EDC | %348
 B,2 G, G,2 .G, | !>![C,E,B,]2 z z3 || C,3 ^C,3 | D,3 ^D,3 | E,3 F,3 | ^F,3 G,3 | A,,3 B,,3 | %355
 =B,,3 C,3 | ^C,3 D,3 | ^D,3 E,3 | C,3 ^C,3 | D,3 ^D,3 | E,3 F,3 | ^F,3 G,3 | A,3 B,3 | =B,3 C3 | %364
 ^C3 D3 | ^D3 E3 || [F,A,^C]6 | D z z z3 | [G,B,^D]6 | E z z z3 | [F,A,^C]6 | [F,A,D]6 | %372
 [G,B,^D]6 | [G,B,E]6 ||[K:treble] z6 |!fff! F6 | (B4 c2) | (d2 e2 d2) | (c4 A2 | F2 G2 A2) | %380
 (B4 G2 | E2 F2 G2) | (A6 | D4) F2 | (B4 c2 | d2 e2 d2) | (c4 A2 | F2 G2 A2) | (B4 G2 | E2 F2 G2) | %390
 A6- | A6 | f6 | (f2 e2 d2) | (c4 A2 | F2 G2 A2) | (B4 G2 | E2 F2 G2) | (A4 F2 | D6) | f6 | %401
 (f2 e2 d2) | (c4 A2 | F2 G2 A2) | B6 | G6 ||[K:bass] A,2 F, F,2 .F, | A,2 B, CB,A, | %408
 B,2 G, G,2 .G, | B,2 C DCB, | A,2 F, F,2 .F, | F2 .F EDC | B,2 G, G,2 .G, | G2 .F EDC || %414
 A,2 F, F,2 .F, | A,2 B, CB,A, | B,2 G, G,2 .G, | B,2 C DCB, | A,2 F, F,2 .F, | F2 .F EDC | %420
 B,2 G, G,2 .G, | G2 .F EDC | A,,2 F,, F,,2 .F,, | A,,2 B,, C,B,,A,, | B,,2 G,, G,,2 .G,, | %425
 B,,2 C, D,C,B,, | A,,2 F,, F,,2 .F,, | F,2 .F, E,D,C, | B,,2 G,, G,,2 .G,, | G,2 .F, E,D,C, || %430
 .A,,.F,, .F,, z3/2 x3/2 | z6 | B,, z3/2 G,, z3/2 x | G,, z3/2 z3 x/ | z3 D,, z3/2 x/ | %435
 z3/2 .C,, .B,,,.A,,, x3/2 | G,,, z3/2 G,, z3/2 x | z3 F,, z3/2 x/ | E,, z3/2 D,, z3/2 x | %439
 z3 C,, z3/2 x/ | z3 !>![F,,A,,C,]2 z |] %441

